src/Assets/Icons/BlogSingleScreen/email.svg

<svg width="24" height="24" viewBox="0 0 24 24" fill="none" xmlns="http://www.w3.org/2000/svg">
<circle cx="12" cy="12" r="12" fill="#0000FF"/>
<path d="M6.48204 6.59961H18.407C19.532 6.59961 20.099 7.13061 20.099 8.21061V15.7886C20.099 16.8596 19.532 17.3996 18.407 17.3996H6.48204C5.35704 17.3996 4.79004 16.8596 4.79004 15.7886V8.21061C4.79004 7.13061 5.35704 6.59961 6.48204 6.59961ZM12.44 14.3396L18.506 9.36261C18.722 9.18261 18.893 8.76861 18.623 8.39961C18.362 8.03061 17.885 8.02161 17.57 8.24661L12.44 11.7206L7.31904 8.24661C7.00404 8.02161 6.52704 8.03061 6.26604 8.39961C5.99604 8.76861 6.16704 9.18261 6.38304 9.36261L12.44 14.3396Z" fill="white"/>
</svg>

<svg xmlns="http://www.w3.org/2000/svg" width="24" height="24" fill="none"><circle cx="12" cy="12" r="12" fill="#00F"/><path fill="#fff" d="M6.482 6.6h11.925c1.125 0 1.692.53 1.692 1.61v7.579c0 1.07-.567 1.61-1.692 1.61H6.482c-1.125 0-1.692-.54-1.692-1.61V8.21c0-1.08.567-1.611 1.692-1.611m5.958 7.74 6.066-4.977c.216-.18.387-.594.117-.963-.261-.37-.738-.378-1.053-.153l-5.13 3.474-5.121-3.474c-.315-.225-.792-.216-1.053.153-.27.369-.099.783.117.963z"/></svg>
